shaders/textures/colorFilm.CUBE
#Created by: Adobe Photoshop Export Color Lookup Plugin
TITLE "_MG_0096.tif"
#LUT size
LUT_3D_SIZE 8
#data domain
#LUT data points
DOMAIN_MIN 0.000000 0.000000 0.000000
DOMAIN_MAX 0.903226 0.903226 0.903226
0.000000 0.000000 0.000000
0.055725 0.000000 0.000000
0.223572 0.000000 0.000000
0.391388 0.000000 0.000000
0.559265 0.000000 0.000000
0.727081 0.000000 0.000000
0.894928 0.000000 0.000000
1.000000 0.000000 0.000000
0.000000 0.129028 0.000000
0.055725 0.129028 0.000000
0.223572 0.129028 0.000000
0.391388 0.129028 0.000000
0.559265 0.129028 0.000000
0.727081 0.129028 0.000000
0.894928 0.129028 0.000000
1.000000 0.129028 0.000000
0.000000 0.258057 0.000000
0.055725 0.258057 0.000000
0.223572 0.258057 0.000000
0.391388 0.258057 0.000000
0.559265 0.258057 0.000000
0.727081 0.258057 0.000000
0.894928 0.258057 0.000000
1.000000 0.258057 0.000000
0.000000 0.387085 0.000000
0.055725 0.387085 0.000000
0.223572 0.387085 0.000000
0.391388 0.387085 0.000000
0.559265 0.387085 0.000000
0.727081 0.387085 0.000000
0.894928 0.387085 0.000000
1.000000 0.387085 0.000000
0.000000 0.516144 0.000000
0.055725 0.516144 0.000000
0.223572 0.516144 0.000000
0.391388 0.516144 0.000000
0.559265 0.516144 0.000000
0.727081 0.516144 0.000000
0.894928 0.516144 0.000000
1.000000 0.516144 0.000000
0.000000 0.645172 0.000000
0.055725 0.645172 0.000000
0.223572 0.645172 0.000000
0.391388 0.645172 0.000000
0.559265 0.645172 0.000000
0.727081 0.645172 0.000000
0.894928 0.645172 0.000000
1.000000 0.645172 0.000000
0.000000 0.774200 0.000000
0.055725 0.774200 0.000000
0.223572 0.774200 0.000000
0.391388 0.774200 0.000000
0.559265 0.774200 0.000000
0.727081 0.774200 0.000000
0.894928 0.774200 0.000000
1.000000 0.774200 0.000000
0.000000 0.903229 0.000000
0.055725 0.903229 0.000000
0.223572 0.903229 0.000000
0.391388 0.903229 0.000000
0.559265 0.903229 0.000000
0.727081 0.903229 0.000000
0.894928 0.903229 0.000000
1.000000 0.903229 0.000000
0.000000 0.000000 0.085968
0.055725 0.000000 0.085968
0.223572 0.000000 0.085968
0.391388 0.000000 0.085968
0.559265 0.000000 0.085968
0.727081 0.000000 0.085968
0.894928 0.000000 0.085968
1.000000 0.000000 0.085968
0.000000 0.129028 0.085968
0.055725 0.129028 0.085968
0.223572 0.129028 0.085968
0.391388 0.129028 0.085968
0.559265 0.129028 0.085968
0.727081 0.129028 0.085968
0.894928 0.129028 0.085968
1.000000 0.129028 0.085968
0.000000 0.258057 0.085968
0.055725 0.258057 0.085968
0.223572 0.258057 0.085968
0.391388 0.258057 0.085968
0.559265 0.258057 0.085968
0.727081 0.258057 0.085968
0.894928 0.258057 0.085968
1.000000 0.258057 0.085968
0.000000 0.387085 0.085968
0.055725 0.387085 0.085968
0.223572 0.387085 0.085968
0.391388 0.387085 0.085968
0.559265 0.387085 0.085968
0.727081 0.387085 0.085968
0.894928 0.387085 0.085968
1.000000 0.387085 0.085968
0.000000 0.516144 0.085968
0.055725 0.516144 0.085968
0.223572 0.516144 0.085968
0.391388 0.516144 0.085968
0.559265 0.516144 0.085968
0.727081 0.516144 0.085968
0.894928 0.516144 0.085968
1.000000 0.516144 0.085968
0.000000 0.645172 0.085968
0.055725 0.645172 0.085968
0.223572 0.645172 0.085968
0.391388 0.645172 0.085968
0.559265 0.645172 0.085968
0.727081 0.645172 0.085968
0.894928 0.645172 0.085968
1.000000 0.645172 0.085968
0.000000 0.774200 0.085968
0.055725 0.774200 0.085968
0.223572 0.774200 0.085968
0.391388 0.774200 0.085968
0.559265 0.774200 0.085968
0.727081 0.774200 0.085968
0.894928 0.774200 0.085968
1.000000 0.774200 0.085968
0.000000 0.903229 0.085968
0.055725 0.903229 0.085968
0.223572 0.903229 0.085968
0.391388 0.903229 0.085968
0.559265 0.903229 0.085968
0.727081 0.903229 0.085968
0.894928 0.903229 0.085968
1.000000 0.903229 0.085968
0.000000 0.000000 0.221375
0.055725 0.000000 0.221375
0.223572 0.000000 0.221375
0.391388 0.000000 0.221375
0.559265 0.000000 0.221375
0.727081 0.000000 0.221375
0.894928 0.000000 0.221375
1.000000 0.000000 0.221375
0.000000 0.129028 0.221375
0.055725 0.129028 0.221375
0.223572 0.129028 0.221375
0.391388 0.129028 0.221375
0.559265 0.129028 0.221375
0.727081 0.129028 0.221375
0.894928 0.129028 0.221375
1.000000 0.129028 0.221375
0.000000 0.258057 0.221375
0.055725 0.258057 0.221375
0.223572 0.258057 0.221375
0.391388 0.258057 0.221375
0.559265 0.258057 0.221375
0.727081 0.258057 0.221375
0.894928 0.258057 0.221375
1.000000 0.258057 0.221375
0.000000 0.387085 0.221375
0.055725 0.387085 0.221375
0.223572 0.387085 0.221375
0.391388 0.387085 0.221375
0.559265 0.387085 0.221375
0.727081 0.387085 0.221375
0.894928 0.387085 0.221375
1.000000 0.387085 0.221375
0.000000 0.516144 0.221375
0.055725 0.516144 0.221375
0.223572 0.516144 0.221375
0.391388 0.516144 0.221375
0.559265 0.516144 0.221375
0.727081 0.516144 0.221375
0.894928 0.516144 0.221375
1.000000 0.516144 0.221375
0.000000 0.645172 0.221375
0.055725 0.645172 0.221375
0.223572 0.645172 0.221375
0.391388 0.645172 0.221375
0.559265 0.645172 0.221375
0.727081 0.645172 0.221375
0.894928 0.645172 0.221375
1.000000 0.645172 0.221375
0.000000 0.774200 0.221375
0.055725 0.774200 0.221375
0.223572 0.774200 0.221375
0.391388 0.774200 0.221375
0.559265 0.774200 0.221375
0.727081 0.774200 0.221375
0.894928 0.774200 0.221375
1.000000 0.774200 0.221375
0.000000 0.903229 0.221375
0.055725 0.903229 0.221375
0.223572 0.903229 0.221375
0.391388 0.903229 0.221375
0.559265 0.903229 0.221375
0.727081 0.903229 0.221375
0.894928 0.903229 0.221375
1.000000 0.903229 0.221375
0.000000 0.000000 0.356781
0.055725 0.000000 0.356781
0.223572 0.000000 0.356781
0.391388 0.000000 0.356781
0.559265 0.000000 0.356781
0.727081 0.000000 0.356781
0.894928 0.000000 0.356781
1.000000 0.000000 0.356781
0.000000 0.129028 0.356781
0.055725 0.129028 0.356781
0.223572 0.129028 0.356781
0.391388 0.129028 0.356781
0.559265 0.129028 0.356781
0.727081 0.129028 0.356781
0.894928 0.129028 0.356781
1.000000 0.129028 0.356781
0.000000 0.258057 0.356781
0.055725 0.258057 0.356781
0.223572 0.258057 0.356781
0.391388 0.258057 0.356781
0.559265 0.258057 0.356781
0.727081 0.258057 0.356781
0.894928 0.258057 0.356781
1.000000 0.258057 0.356781
0.000000 0.387085 0.356781
0.055725 0.387085 0.356781
0.223572 0.387085 0.356781
0.391388 0.387085 0.356781
0.559265 0.387085 0.356781
0.727081 0.387085 0.356781
0.894928 0.387085 0.356781
1.000000 0.387085 0.356781
0.000000 0.516144 0.356781
0.055725 0.516144 0.356781
0.223572 0.516144 0.356781
0.391388 0.516144 0.356781
0.559265 0.516144 0.356781
0.727081 0.516144 0.356781
0.894928 0.516144 0.356781
1.000000 0.516144 0.356781
0.000000 0.645172 0.356781
0.055725 0.645172 0.356781
0.223572 0.645172 0.356781
0.391388 0.645172 0.356781
0.559265 0.645172 0.356781
0.727081 0.645172 0.356781
0.894928 0.645172 0.356781
1.000000 0.645172 0.356781
0.000000 0.774200 0.356781
0.055725 0.774200 0.356781
0.223572 0.774200 0.356781
0.391388 0.774200 0.356781
0.559265 0.774200 0.356781
0.727081 0.774200 0.356781
0.894928 0.774200 0.356781
1.000000 0.774200 0.356781
0.000000 0.903229 0.356781
0.055725 0.903229 0.356781
0.223572 0.903229 0.356781
0.391388 0.903229 0.356781
0.559265 0.903229 0.356781
0.727081 0.903229 0.356781
0.894928 0.903229 0.356781
1.000000 0.903229 0.356781
0.000000 0.000000 0.492218
0.055725 0.000000 0.492218
0.223572 0.000000 0.492218
0.391388 0.000000 0.492218
0.559265 0.000000 0.492218
0.727081 0.000000 0.492218
0.894928 0.000000 0.492218
1.000000 0.000000 0.492218
0.000000 0.129028 0.492218
0.055725 0.129028 0.492218
0.223572 0.129028 0.492218
0.391388 0.129028 0.492218
0.559265 0.129028 0.492218
0.727081 0.129028 0.492218
0.894928 0.129028 0.492218
1.000000 0.129028 0.492218
0.000000 0.258057 0.492218
0.055725 0.258057 0.492218
0.223572 0.258057 0.492218
0.391388 0.258057 0.492218
0.559265 0.258057 0.492218
0.727081 0.258057 0.492218
0.894928 0.258057 0.492218
1.000000 0.258057 0.492218
0.000000 0.387085 0.492218
0.055725 0.387085 0.492218
0.223572 0.387085 0.492218
0.391388 0.387085 0.492218
0.559265 0.387085 0.492218
0.727081 0.387085 0.492218
0.894928 0.387085 0.492218
1.000000 0.387085 0.492218
0.000000 0.516144 0.492218
0.055725 0.516144 0.492218
0.223572 0.516144 0.492218
0.391388 0.516144 0.492218
0.559265 0.516144 0.492218
0.727081 0.516144 0.492218
0.894928 0.516144 0.492218
1.000000 0.516144 0.492218
0.000000 0.645172 0.492218
0.055725 0.645172 0.492218
0.223572 0.645172 0.492218
0.391388 0.645172 0.492218
0.559265 0.645172 0.492218
0.727081 0.645172 0.492218
0.894928 0.645172 0.492218
1.000000 0.645172 0.492218
0.000000 0.774200 0.492218
0.055725 0.774200 0.492218
0.223572 0.774200 0.492218
0.391388 0.774200 0.492218
0.559265 0.774200 0.492218
0.727081 0.774200 0.492218
0.894928 0.774200 0.492218
1.000000 0.774200 0.492218
0.000000 0.903229 0.492218
0.055725 0.903229 0.492218
0.223572 0.903229 0.492218
0.391388 0.903229 0.492218
0.559265 0.903229 0.492218
0.727081 0.903229 0.492218
0.894928 0.903229 0.492218
1.000000 0.903229 0.492218
0.000000 0.000000 0.627625
0.055725 0.000000 0.627625
0.223572 0.000000 0.627625
0.391388 0.000000 0.627625
0.559265 0.000000 0.627625
0.727081 0.000000 0.627625
0.894928 0.000000 0.627625
1.000000 0.000000 0.627625
0.000000 0.129028 0.627625
0.055725 0.129028 0.627625
0.223572 0.129028 0.627625
0.391388 0.129028 0.627625
0.559265 0.129028 0.627625
0.727081 0.129028 0.627625
0.894928 0.129028 0.627625
1.000000 0.129028 0.627625
0.000000 0.258057 0.627625
0.055725 0.258057 0.627625
0.223572 0.258057 0.627625
0.391388 0.258057 0.627625
0.559265 0.258057 0.627625
0.727081 0.258057 0.627625
0.894928 0.258057 0.627625
1.000000 0.258057 0.627625
0.000000 0.387085 0.627625
0.055725 0.387085 0.627625
0.223572 0.387085 0.627625
0.391388 0.387085 0.627625
0.559265 0.387085 0.627625
0.727081 0.387085 0.627625
0.894928 0.387085 0.627625
1.000000 0.387085 0.627625
0.000000 0.516144 0.627625
0.055725 0.516144 0.627625
0.223572 0.516144 0.627625
0.391388 0.516144 0.627625
0.559265 0.516144 0.627625
0.727081 0.516144 0.627625
0.894928 0.516144 0.627625
1.000000 0.516144 0.627625
0.000000 0.645172 0.627625
0.055725 0.645172 0.627625
0.223572 0.645172 0.627625
0.391388 0.645172 0.627625
0.559265 0.645172 0.627625
0.727081 0.645172 0.627625
0.894928 0.645172 0.627625
1.000000 0.645172 0.627625
0.000000 0.774200 0.627625
0.055725 0.774200 0.627625
0.223572 0.774200 0.627625
0.391388 0.774200 0.627625
0.559265 0.774200 0.627625
0.727081 0.774200 0.627625
0.894928 0.774200 0.627625
1.000000 0.774200 0.627625
0.000000 0.903229 0.627625
0.055725 0.903229 0.627625
0.223572 0.903229 0.627625
0.391388 0.903229 0.627625
0.559265 0.903229 0.627625
0.727081 0.903229 0.627625
0.894928 0.903229 0.627625
1.000000 0.903229 0.627625
0.000000 0.000000 0.763031
0.055725 0.000000 0.763031
0.223572 0.000000 0.763031
0.391388 0.000000 0.763031
0.559265 0.000000 0.763031
0.727081 0.000000 0.763031
0.894928 0.000000 0.763031
1.000000 0.000000 0.763031
0.000000 0.129028 0.763031
0.055725 0.129028 0.763031
0.223572 0.129028 0.763031
0.391388 0.129028 0.763031
0.559265 0.129028 0.763031
0.727081 0.129028 0.763031
0.894928 0.129028 0.763031
1.000000 0.129028 0.763031
0.000000 0.258057 0.763031
0.055725 0.258057 0.763031
0.223572 0.258057 0.763031
0.391388 0.258057 0.763031
0.559265 0.258057 0.763031
0.727081 0.258057 0.763031
0.894928 0.258057 0.763031
1.000000 0.258057 0.763031
0.000000 0.387085 0.763031
0.055725 0.387085 0.763031
0.223572 0.387085 0.763031
0.391388 0.387085 0.763031
0.559265 0.387085 0.763031
0.727081 0.387085 0.763031
0.894928 0.387085 0.763031
1.000000 0.387085 0.763031
0.000000 0.516144 0.763031
0.055725 0.516144 0.763031
0.223572 0.516144 0.763031
0.391388 0.516144 0.763031
0.559265 0.516144 0.763031
0.727081 0.516144 0.763031
0.894928 0.516144 0.763031
1.000000 0.516144 0.763031
0.000000 0.645172 0.763031
0.055725 0.645172 0.763031
0.223572 0.645172 0.763031
0.391388 0.645172 0.763031
0.559265 0.645172 0.763031
0.727081 0.645172 0.763031
0.894928 0.645172 0.763031
1.000000 0.645172 0.763031
0.000000 0.774200 0.763031
0.055725 0.774200 0.763031
0.223572 0.774200 0.763031
0.391388 0.774200 0.763031
0.559265 0.774200 0.763031
0.727081 0.774200 0.763031
0.894928 0.774200 0.763031
1.000000 0.774200 0.763031
0.000000 0.903229 0.763031
0.055725 0.903229 0.763031
0.223572 0.903229 0.763031
0.391388 0.903229 0.763031
0.559265 0.903229 0.763031
0.727081 0.903229 0.763031
0.894928 0.903229 0.763031
1.000000 0.903229 0.763031
0.000000 0.000000 0.898438
0.055725 0.000000 0.898438
0.223572 0.000000 0.898438
0.391388 0.000000 0.898438
0.559265 0.000000 0.898438
0.727081 0.000000 0.898438
0.894928 0.000000 0.898438
1.000000 0.000000 0.898438
0.000000 0.129028 0.898438
0.055725 0.129028 0.898438
0.223572 0.129028 0.898438
0.391388 0.129028 0.898438
0.559265 0.129028 0.898438
0.727081 0.129028 0.898438
0.894928 0.129028 0.898438
1.000000 0.129028 0.898438
0.000000 0.258057 0.898438
0.055725 0.258057 0.898438
0.223572 0.258057 0.898438
0.391388 0.258057 0.898438
0.559265 0.258057 0.898438
0.727081 0.258057 0.898438
0.894928 0.258057 0.898438
1.000000 0.258057 0.898438
0.000000 0.387085 0.898438
0.055725 0.387085 0.898438
0.223572 0.387085 0.898438
0.391388 0.387085 0.898438
0.559265 0.387085 0.898438
0.727081 0.387085 0.898438
0.894928 0.387085 0.898438
1.000000 0.387085 0.898438
0.000000 0.516144 0.898438
0.055725 0.516144 0.898438
0.223572 0.516144 0.898438
0.391388 0.516144 0.898438
0.559265 0.516144 0.898438
0.727081 0.516144 0.898438
0.894928 0.516144 0.898438
1.000000 0.516144 0.898438
0.000000 0.645172 0.898438
0.055725 0.645172 0.898438
0.223572 0.645172 0.898438
0.391388 0.645172 0.898438
0.559265 0.645172 0.898438
0.727081 0.645172 0.898438
0.894928 0.645172 0.898438
1.000000 0.645172 0.898438
0.000000 0.774200 0.898438
0.055725 0.774200 0.898438
0.223572 0.774200 0.898438
0.391388 0.774200 0.898438
0.559265 0.774200 0.898438
0.727081 0.774200 0.898438
0.894928 0.774200 0.898438
1.000000 0.774200 0.898438
0.000000 0.903229 0.898438
0.055725 0.903229 0.898438
0.223572 0.903229 0.898438
0.391388 0.903229 0.898438
0.559265 0.903229 0.898438
0.727081 0.903229 0.898438
0.894928 0.903229 0.898438
1.000000 0.903229 0.898438
