shaders/textures/colorFilm.3DL
#Created by: Adobe Photoshop Export Color Lookup Plugin
#Description: _MG_0096.tif
0 33 66 99 132 165 198 231 264 297 330 363 396 429 462 495 528 561 594 627 660 693 726 759 792 825 858 891 924 957 990 1023
0 0 0
0 0 0
0 0 75
0 0 213
0 0 352
0 0 491
0 0 629
0 0 768
0 0 907
0 0 1045
0 0 1184
0 0 1322
0 0 1461
0 0 1600
0 0 1738
0 0 1877
0 0 2016
0 0 2154
0 0 2293
0 0 2432
0 0 2570
0 0 2709
0 0 2847
0 0 2986
0 0 3125
0 0 3263
0 0 3402
0 0 3541
0 0 3679
0 0 3818
0 0 3956
0 0 4095
0 132 0
0 132 0
0 132 75
0 132 213
0 132 352
0 132 491
0 132 629
0 132 768
0 132 907
0 132 1045
0 132 1184
0 132 1322
0 132 1461
0 132 1600
0 132 1738
0 132 1877
0 132 2016
0 132 2154
0 132 2293
0 132 2432
0 132 2570
0 132 2709
0 132 2847
0 132 2986
0 132 3125
0 132 3263
0 132 3402
0 132 3541
0 132 3679
0 132 3818
0 132 3956
0 132 4095
0 264 0
0 264 0
0 264 75
0 264 213
0 264 352
0 264 491
0 264 629
0 264 768
0 264 907
0 264 1045
0 264 1184
0 264 1322
0 264 1461
0 264 1600
0 264 1738
0 264 1877
0 264 2016
0 264 2154
0 264 2293
0 264 2432
0 264 2570
0 264 2709
0 264 2847
0 264 2986
0 264 3125
0 264 3263
0 264 3402
0 264 3541
0 264 3679
0 264 3818
0 264 3956
0 264 4095
0 396 0
0 396 0
0 396 75
0 396 213
0 396 352
0 396 491
0 396 629
0 396 768
0 396 907
0 396 1045
0 396 1184
0 396 1322
0 396 1461
0 396 1600
0 396 1738
0 396 1877
0 396 2016
0 396 2154
0 396 2293
0 396 2432
0 396 2570
0 396 2709
0 396 2847
0 396 2986
0 396 3125
0 396 3263
0 396 3402
0 396 3541
0 396 3679
0 396 3818
0 396 3956
0 396 4095
0 528 0
0 528 0
0 528 75
0 528 213
0 528 352
0 528 491
0 528 629
0 528 768
0 528 907
0 528 1045
0 528 1184
0 528 1322
0 528 1461
0 528 1600
0 528 1738
0 528 1877
0 528 2016
0 528 2154
0 528 2293
0 528 2432
0 528 2570
0 528 2709
0 528 2847
0 528 2986
0 528 3125
0 528 3263
0 528 3402
0 528 3541
0 528 3679
0 528 3818
0 528 3956
0 528 4095
0 660 0
0 660 0
0 660 75
0 660 213
0 660 352
0 660 491
0 660 629
0 660 768
0 660 907
0 660 1045
0 660 1184
0 660 1322
0 660 1461
0 660 1600
0 660 1738
0 660 1877
0 660 2016
0 660 2154
0 660 2293
0 660 2432
0 660 2570
0 660 2709
0 660 2847
0 660 2986
0 660 3125
0 660 3263
0 660 3402
0 660 3541
0 660 3679
0 660 3818
0 660 3956
0 660 4095
0 793 0
0 793 0
0 793 75
0 793 213
0 793 352
0 793 491
0 793 629
0 793 768
0 793 907
0 793 1045
0 793 1184
0 793 1322
0 793 1461
0 793 1600
0 793 1738
0 793 1877
0 793 2016
0 793 2154
0 793 2293
0 793 2432
0 793 2570
0 793 2709
0 793 2847
0 793 2986
0 793 3125
0 793 3263
0 793 3402
0 793 3541
0 793 3679
0 793 3818
0 793 3956
0 793 4095
0 925 0
0 925 0
0 925 75
0 925 213
0 925 352
0 925 491
0 925 629
0 925 768
0 925 907
0 925 1045
0 925 1184
0 925 1322
0 925 1461
0 925 1600
0 925 1738
0 925 1877
0 925 2016
0 925 2154
0 925 2293
0 925 2432
0 925 2570
0 925 2709
0 925 2847
0 925 2986
0 925 3125
0 925 3263
0 925 3402
0 925 3541
0 925 3679
0 925 3818
0 925 3956
0 925 4095
0 1057 0
0 1057 0
0 1057 75
0 1057 213
0 1057 352
0 1057 491
0 1057 629
0 1057 768
0 1057 907
0 1057 1045
0 1057 1184
0 1057 1322
0 1057 1461
0 1057 1600
0 1057 1738
0 1057 1877
0 1057 2016
0 1057 2154
0 1057 2293
0 1057 2432
0 1057 2570
0 1057 2709
0 1057 2847
0 1057 2986
0 1057 3125
0 1057 3263
0 1057 3402
0 1057 3541
0 1057 3679
0 1057 3818
0 1057 3956
0 1057 4095
0 1189 0
0 1189 0
0 1189 75
0 1189 213
0 1189 352
0 1189 491
0 1189 629
0 1189 768
0 1189 907
0 1189 1045
0 1189 1184
0 1189 1322
0 1189 1461
0 1189 1600
0 1189 1738
0 1189 1877
0 1189 2016
0 1189 2154
0 1189 2293
0 1189 2432
0 1189 2570
0 1189 2709
0 1189 2847
0 1189 2986
0 1189 3125
0 1189 3263
0 1189 3402
0 1189 3541
0 1189 3679
0 1189 3818
0 1189 3956
0 1189 4095
0 1321 0
0 1321 0
0 1321 75
0 1321 213
0 1321 352
0 1321 491
0 1321 629
0 1321 768
0 1321 907
0 1321 1045
0 1321 1184
0 1321 1322
0 1321 1461
0 1321 1600
0 1321 1738
0 1321 1877
0 1321 2016
0 1321 2154
0 1321 2293
0 1321 2432
0 1321 2570
0 1321 2709
0 1321 2847
0 1321 2986
0 1321 3125
0 1321 3263
0 1321 3402
0 1321 3541
0 1321 3679
0 1321 3818
0 1321 3956
0 1321 4095
0 1453 0
0 1453 0
0 1453 75
0 1453 213
0 1453 352
0 1453 491
0 1453 629
0 1453 768
0 1453 907
0 1453 1045
0 1453 1184
0 1453 1322
0 1453 1461
0 1453 1600
0 1453 1738
0 1453 1877
0 1453 2016
0 1453 2154
0 1453 2293
0 1453 2432
0 1453 2570
0 1453 2709
0 1453 2847
0 1453 2986
0 1453 3125
0 1453 3263
0 1453 3402
0 1453 3541
0 1453 3679
0 1453 3818
0 1453 3956
0 1453 4095
0 1585 0
0 1585 0
0 1585 75
0 1585 213
0 1585 352
0 1585 491
0 1585 629
0 1585 768
0 1585 907
0 1585 1045
0 1585 1184
0 1585 1322
0 1585 1461
0 1585 1600
0 1585 1738
0 1585 1877
0 1585 2016
0 1585 2154
0 1585 2293
0 1585 2432
0 1585 2570
0 1585 2709
0 1585 2847
0 1585 2986
0 1585 3125
0 1585 3263
0 1585 3402
0 1585 3541
0 1585 3679
0 1585 3818
0 1585 3956
0 1585 4095
0 1717 0
0 1717 0
0 1717 75
0 1717 213
0 1717 352
0 1717 491
0 1717 629
0 1717 768
0 1717 907
0 1717 1045
0 1717 1184
0 1717 1322
0 1717 1461
0 1717 1600
0 1717 1738
0 1717 1877
0 1717 2016
0 1717 2154
0 1717 2293
0 1717 2432
0 1717 2570
0 1717 2709
0 1717 2847
0 1717 2986
0 1717 3125
0 1717 3263
0 1717 3402
0 1717 3541
0 1717 3679
0 1717 3818
0 1717 3956
0 1717 4095
0 1849 0
0 1849 0
0 1849 75
0 1849 213
0 1849 352
0 1849 491
0 1849 629
0 1849 768
0 1849 907
0 1849 1045
0 1849 1184
0 1849 1322
0 1849 1461
0 1849 1600
0 1849 1738
0 1849 1877
0 1849 2016
0 1849 2154
0 1849 2293
0 1849 2432
0 1849 2570
0 1849 2709
0 1849 2847
0 1849 2986
0 1849 3125
0 1849 3263
0 1849 3402
0 1849 3541
0 1849 3679
0 1849 3818
0 1849 3956
0 1849 4095
0 1981 0
0 1981 0
0 1981 75
0 1981 213
0 1981 352
0 1981 491
0 1981 629
0 1981 768
0 1981 907
0 1981 1045
0 1981 1184
0 1981 1322
0 1981 1461
0 1981 1600
0 1981 1738
0 1981 1877
0 1981 2016
0 1981 2154
0 1981 2293
0 1981 2432
0 1981 2570
0 1981 2709
0 1981 2847
0 1981 2986
0 1981 3125
0 1981 3263
0 1981 3402
0 1981 3541
0 1981 3679
0 1981 3818
0 1981 3956
0 1981 4095
0 2114 0
0 2114 0
0 2114 75
0 2114 213
0 2114 352
0 2114 491
0 2114 629
0 2114 768
0 2114 907
0 2114 1045
0 2114 1184
0 2114 1322
0 2114 1461
0 2114 1600
0 2114 1738
0 2114 1877
0 2114 2016
0 2114 2154
0 2114 2293
0 2114 2432
0 2114 2570
0 2114 2709
0 2114 2847
0 2114 2986
0 2114 3125
0 2114 3263
0 2114 3402
0 2114 3541
0 2114 3679
0 2114 3818
0 2114 3956
0 2114 4095
0 2246 0
0 2246 0
0 2246 75
0 2246 213
0 2246 352
0 2246 491
0 2246 629
0 2246 768
0 2246 907
0 2246 1045
0 2246 1184
0 2246 1322
0 2246 1461
0 2246 1600
0 2246 1738
0 2246 1877
0 2246 2016
0 2246 2154
0 2246 2293
0 2246 2432
0 2246 2570
0 2246 2709
0 2246 2847
0 2246 2986
0 2246 3125
0 2246 3263
0 2246 3402
0 2246 3541
0 2246 3679
0 2246 3818
0 2246 3956
0 2246 4095
0 2378 0
0 2378 0
0 2378 75
0 2378 213
0 2378 352
0 2378 491
0 2378 629
0 2378 768
0 2378 907
0 2378 1045
0 2378 1184
0 2378 1322
0 2378 1461
0 2378 1600
0 2378 1738
0 2378 1877
0 2378 2016
0 2378 2154
0 2378 2293
0 2378 2432
0 2378 2570
0 2378 2709
0 2378 2847
0 2378 2986
0 2378 3125
0 2378 3263
0 2378 3402
0 2378 3541
0 2378 3679
0 2378 3818
0 2378 3956
0 2378 4095
0 2510 0
0 2510 0
0 2510 75
0 2510 213
0 2510 352
0 2510 491
0 2510 629
0 2510 768
0 2510 907
0 2510 1045
0 2510 1184
0 2510 1322
0 2510 1461
0 2510 1600
0 2510 1738
0 2510 1877
0 2510 2016
0 2510 2154
0 2510 2293
0 2510 2432
0 2510 2570
0 2510 2709
0 2510 2847
0 2510 2986
0 2510 3125
0 2510 3263
0 2510 3402
0 2510 3541
0 2510 3679
0 2510 3818
0 2510 3956
0 2510 4095
0 2642 0
0 2642 0
0 2642 75
0 2642 213
0 2642 352
0 2642 491
0 2642 629
0 2642 768
0 2642 907
0 2642 1045
0 2642 1184
0 2642 1322
0 2642 1461
0 2642 1600
0 2642 1738
0 2642 1877
0 2642 2016
0 2642 2154
0 2642 2293
0 2642 2432
0 2642 2570
0 2642 2709
0 2642 2847
0 2642 2986
0 2642 3125
0 2642 3263
0 2642 3402
0 2642 3541
0 2642 3679
0 2642 3818
0 2642 3956
0 2642 4095
0 2774 0
0 2774 0
0 2774 75
0 2774 213
0 2774 352
0 2774 491
0 2774 629
0 2774 768
0 2774 907
0 2774 1045
0 2774 1184
0 2774 1322
0 2774 1461
0 2774 1600
0 2774 1738
0 2774 1877
0 2774 2016
0 2774 2154
0 2774 2293
0 2774 2432
0 2774 2570
0 2774 2709
0 2774 2847
0 2774 2986
0 2774 3125
0 2774 3263
0 2774 3402
0 2774 3541
0 2774 3679
0 2774 3818
0 2774 3956
0 2774 4095
0 2906 0
0 2906 0
0 2906 75
0 2906 213
0 2906 352
0 2906 491
0 2906 629
0 2906 768
0 2906 907
0 2906 1045
0 2906 1184
0 2906 1322
0 2906 1461
0 2906 1600
0 2906 1738
0 2906 1877
0 2906 2016
0 2906 2154
0 2906 2293
0 2906 2432
0 2906 2570
0 2906 2709
0 2906 2847
0 2906 2986
0 2906 3125
0 2906 3263
0 2906 3402
0 2906 3541
0 2906 3679
0 2906 3818
0 2906 3956
0 2906 4095
0 3038 0
0 3038 0
0 3038 75
0 3038 213
0 3038 352
0 3038 491
0 3038 629
0 3038 768
0 3038 907
0 3038 1045
0 3038 1184
0 3038 1322
0 3038 1461
0 3038 1600
0 3038 1738
0 3038 1877
0 3038 2016
0 3038 2154
0 3038 2293
0 3038 2432
0 3038 2570
0 3038 2709
0 3038 2847
0 3038 2986
0 3038 3125
0 3038 3263
0 3038 3402
0 3038 3541
0 3038 3679
0 3038 3818
0 3038 3956
0 3038 4095
0 3170 0
0 3170 0
0 3170 75
0 3170 213
0 3170 352
0 3170 491
0 3170 629
0 3170 768
0 3170 907
0 3170 1045
0 3170 1184
0 3170 1322
0 3170 1461
0 3170 1600
0 3170 1738
0 3170 1877
0 3170 2016
0 3170 2154
0 3170 2293
0 3170 2432
0 3170 2570
0 3170 2709
0 3170 2847
0 3170 2986
0 3170 3125
0 3170 3263
0 3170 3402
0 3170 3541
0 3170 3679
0 3170 3818
0 3170 3956
0 3170 4095
0 3302 0
0 3302 0
0 3302 75
0 3302 213
0 3302 352
0 3302 491
0 3302 629
0 3302 768
0 3302 907
0 3302 1045
0 3302 1184
0 3302 1322
0 3302 1461
0 3302 1600
0 3302 1738
0 3302 1877
0 3302 2016
0 3302 2154
0 3302 2293
0 3302 2432
0 3302 2570
0 3302 2709
0 3302 2847
0 3302 2986
0 3302 3125
0 3302 3263
0 3302 3402
0 3302 3541
0 3302 3679
0 3302 3818
0 3302 3956
0 3302 4095
0 3435 0
0 3435 0
0 3435 75
0 3435 213
0 3435 352
0 3435 491
0 3435 629
0 3435 768
0 3435 907
0 3435 1045
0 3435 1184
0 3435 1322
0 3435 1461
0 3435 1600
0 3435 1738
0 3435 1877
0 3435 2016
0 3435 2154
0 3435 2293
0 3435 2432
0 3435 2570
0 3435 2709
0 3435 2847
0 3435 2986
0 3435 3125
0 3435 3263
0 3435 3402
0 3435 3541
0 3435 3679
0 3435 3818
0 3435 3956
0 3435 4095
0 3567 0
0 3567 0
0 3567 75
0 3567 213
0 3567 352
0 3567 491
0 3567 629
0 3567 768
0 3567 907
0 3567 1045
0 3567 1184
0 3567 1322
0 3567 1461
0 3567 1600
0 3567 1738
0 3567 1877
0 3567 2016
0 3567 2154
0 3567 2293
0 3567 2432
0 3567 2570
0 3567 2709
0 3567 2847
0 3567 2986
0 3567 3125
0 3567 3263
0 3567 3402
0 3567 3541
0 3567 3679
0 3567 3818
0 3567 3956
0 3567 4095
0 3699 0
0 3699 0
0 3699 75
0 3699 213
