shaders/textures/colorFilm.CUBE
#Created by: Adobe Photoshop Export Color Lookup Plugin
TITLE "_MG_0096.tif"
#LUT size
LUT_3D_SIZE 32
#data domain
DOMAIN_MIN 0.0 0.0 0.0
DOMAIN_MAX 1.0 1.0 1.0
#LUT data points
0.000000 0.000000 0.000000
0.000000 0.000000 0.000000
0.000000 0.000000 0.000000
0.013763 0.000000 0.000000
0.055725 0.000000 0.000000
0.097687 0.000000 0.000000
0.139648 0.000000 0.000000
0.181610 0.000000 0.000000
0.223572 0.000000 0.000000
0.265503 0.000000 0.000000
0.307495 0.000000 0.000000
0.349426 0.000000 0.000000
0.391388 0.000000 0.000000
0.433350 0.000000 0.000000
0.475311 0.000000 0.000000
0.517273 0.000000 0.000000
0.559265 0.000000 0.000000
0.601227 0.000000 0.000000
0.643188 0.000000 0.000000
0.685150 0.000000 0.000000
0.727081 0.000000 0.000000
0.769073 0.000000 0.000000
0.811035 0.000000 0.000000
0.852966 0.000000 0.000000
0.894928 0.000000 0.000000
0.936890 0.000000 0.000000
0.978851 0.000000 0.000000
1.000000 0.000000 0.000000
1.000000 0.000000 0.000000
1.000000 0.000000 0.000000
1.000000 0.000000 0.000000
1.000000 0.000000 0.000000
0.000000 0.032257 0.000000
0.000000 0.032257 0.000000
0.000000 0.032257 0.000000
0.013763 0.032257 0.000000
0.055725 0.032257 0.000000
0.097687 0.032257 0.000000
0.139648 0.032257 0.000000
0.181610 0.032257 0.000000
0.223572 0.032257 0.000000
0.265503 0.032257 0.000000
0.307495 0.032257 0.000000
0.349426 0.032257 0.000000
0.391388 0.032257 0.000000
0.433350 0.032257 0.000000
0.475311 0.032257 0.000000
0.517273 0.032257 0.000000
0.559265 0.032257 0.000000
0.601227 0.032257 0.000000
0.643188 0.032257 0.000000
0.685150 0.032257 0.000000
0.727081 0.032257 0.000000
0.769073 0.032257 0.000000
0.811035 0.032257 0.000000
0.852966 0.032257 0.000000
0.894928 0.032257 0.000000
0.936890 0.032257 0.000000
0.978851 0.032257 0.000000
1.000000 0.032257 0.000000
1.000000 0.032257 0.000000
1.000000 0.032257 0.000000
1.000000 0.032257 0.000000
1.000000 0.032257 0.000000
0.000000 0.064514 0.000000
0.000000 0.064514 0.000000
0.000000 0.064514 0.000000
0.013763 0.064514 0.000000
0.055725 0.064514 0.000000
0.097687 0.064514 0.000000
0.139648 0.064514 0.000000
0.181610 0.064514 0.000000
0.223572 0.064514 0.000000
0.265503 0.064514 0.000000
0.307495 0.064514 0.000000
0.349426 0.064514 0.000000
0.391388 0.064514 0.000000
0.433350 0.064514 0.000000
0.475311 0.064514 0.000000
0.517273 0.064514 0.000000
0.559265 0.064514 0.000000
0.601227 0.064514 0.000000
0.643188 0.064514 0.000000
0.685150 0.064514 0.000000
0.727081 0.064514 0.000000
0.769073 0.064514 0.000000
0.811035 0.064514 0.000000
0.852966 0.064514 0.000000
0.894928 0.064514 0.000000
0.936890 0.064514 0.000000
0.978851 0.064514 0.000000
1.000000 0.064514 0.000000
1.000000 0.064514 0.000000
1.000000 0.064514 0.000000
1.000000 0.064514 0.000000
1.000000 0.064514 0.000000
0.000000 0.096771 0.000000
0.000000 0.096771 0.000000
0.000000 0.096771 0.000000
0.013763 0.096771 0.000000
0.055725 0.096771 0.000000
0.097687 0.096771 0.000000
0.139648 0.096771 0.000000
0.181610 0.096771 0.000000
0.223572 0.096771 0.000000
0.265503 0.096771 0.000000
0.307495 0.096771 0.000000
0.349426 0.096771 0.000000
0.391388 0.096771 0.000000
0.433350 0.096771 0.000000
0.475311 0.096771 0.000000
0.517273 0.096771 0.000000
0.559265 0.096771 0.000000
0.601227 0.096771 0.000000
0.643188 0.096771 0.000000
0.685150 0.096771 0.000000
0.727081 0.096771 0.000000
0.769073 0.096771 0.000000
0.811035 0.096771 0.000000
0.852966 0.096771 0.000000
0.894928 0.096771 0.000000
0.936890 0.096771 0.000000
0.978851 0.096771 0.000000
1.000000 0.096771 0.000000
1.000000 0.096771 0.000000
1.000000 0.096771 0.000000
1.000000 0.096771 0.000000
1.000000 0.096771 0.000000
0.000000 0.129028 0.000000
0.000000 0.129028 0.000000
0.000000 0.129028 0.000000
0.013763 0.129028 0.000000
0.055725 0.129028 0.000000
0.097687 0.129028 0.000000
0.139648 0.129028 0.000000
0.181610 0.129028 0.000000
0.223572 0.129028 0.000000
0.265503 0.129028 0.000000
0.307495 0.129028 0.000000
0.349426 0.129028 0.000000
0.391388 0.129028 0.000000
0.433350 0.129028 0.000000
0.475311 0.129028 0.000000
0.517273 0.129028 0.000000
0.559265 0.129028 0.000000
0.601227 0.129028 0.000000
0.643188 0.129028 0.000000
0.685150 0.129028 0.000000
0.727081 0.129028 0.000000
0.769073 0.129028 0.000000
0.811035 0.129028 0.000000
0.852966 0.129028 0.000000
0.894928 0.129028 0.000000
0.936890 0.129028 0.000000
0.978851 0.129028 0.000000
1.000000 0.129028 0.000000
1.000000 0.129028 0.000000
1.000000 0.129028 0.000000
1.000000 0.129028 0.000000
1.000000 0.129028 0.000000
0.000000 0.161285 0.000000
0.000000 0.161285 0.000000
0.000000 0.161285 0.000000
0.013763 0.161285 0.000000
0.055725 0.161285 0.000000
0.097687 0.161285 0.000000
0.139648 0.161285 0.000000
0.181610 0.161285 0.000000
0.223572 0.161285 0.000000
0.265503 0.161285 0.000000
0.307495 0.161285 0.000000
0.349426 0.161285 0.000000
0.391388 0.161285 0.000000
0.433350 0.161285 0.000000
0.475311 0.161285 0.000000
0.517273 0.161285 0.000000
0.559265 0.161285 0.000000
0.601227 0.161285 0.000000
0.643188 0.161285 0.000000
0.685150 0.161285 0.000000
0.727081 0.161285 0.000000
0.769073 0.161285 0.000000
0.811035 0.161285 0.000000
0.852966 0.161285 0.000000
0.894928 0.161285 0.000000
0.936890 0.161285 0.000000
0.978851 0.161285 0.000000
1.000000 0.161285 0.000000
1.000000 0.161285 0.000000
1.000000 0.161285 0.000000
1.000000 0.161285 0.000000
1.000000 0.161285 0.000000
0.000000 0.193542 0.000000
0.000000 0.193542 0.000000
0.000000 0.193542 0.000000
0.013763 0.193542 0.000000
0.055725 0.193542 0.000000
0.097687 0.193542 0.000000
0.139648 0.193542 0.000000
0.181610 0.193542 0.000000
0.223572 0.193542 0.000000
0.265503 0.193542 0.000000
0.307495 0.193542 0.000000
0.349426 0.193542 0.000000
0.391388 0.193542 0.000000
0.433350 0.193542 0.000000
0.475311 0.193542 0.000000
0.517273 0.193542 0.000000
0.559265 0.193542 0.000000
0.601227 0.193542 0.000000
0.643188 0.193542 0.000000
0.685150 0.193542 0.000000
0.727081 0.193542 0.000000
0.769073 0.193542 0.000000
0.811035 0.193542 0.000000
0.852966 0.193542 0.000000
0.894928 0.193542 0.000000
0.936890 0.193542 0.000000
0.978851 0.193542 0.000000
1.000000 0.193542 0.000000
1.000000 0.193542 0.000000
1.000000 0.193542 0.000000
1.000000 0.193542 0.000000
1.000000 0.193542 0.000000
0.000000 0.225800 0.000000
0.000000 0.225800 0.000000
0.000000 0.225800 0.000000
0.013763 0.225800 0.000000
0.055725 0.225800 0.000000
0.097687 0.225800 0.000000
0.139648 0.225800 0.000000
0.181610 0.225800 0.000000
0.223572 0.225800 0.000000
0.265503 0.225800 0.000000
0.307495 0.225800 0.000000
0.349426 0.225800 0.000000
0.391388 0.225800 0.000000
0.433350 0.225800 0.000000
0.475311 0.225800 0.000000
0.517273 0.225800 0.000000
0.559265 0.225800 0.000000
0.601227 0.225800 0.000000
0.643188 0.225800 0.000000
0.685150 0.225800 0.000000
0.727081 0.225800 0.000000
0.769073 0.225800 0.000000
0.811035 0.225800 0.000000
0.852966 0.225800 0.000000
0.894928 0.225800 0.000000
0.936890 0.225800 0.000000
0.978851 0.225800 0.000000
1.000000 0.225800 0.000000
1.000000 0.225800 0.000000
1.000000 0.225800 0.000000
1.000000 0.225800 0.000000
1.000000 0.225800 0.000000
0.000000 0.258057 0.000000
0.000000 0.258057 0.000000
0.000000 0.258057 0.000000
0.013763 0.258057 0.000000
0.055725 0.258057 0.000000
0.097687 0.258057 0.000000
0.139648 0.258057 0.000000
0.181610 0.258057 0.000000
0.223572 0.258057 0.000000
0.265503 0.258057 0.000000
0.307495 0.258057 0.000000
0.349426 0.258057 0.000000
0.391388 0.258057 0.000000
0.433350 0.258057 0.000000
0.475311 0.258057 0.000000
0.517273 0.258057 0.000000
0.559265 0.258057 0.000000
0.601227 0.258057 0.000000
0.643188 0.258057 0.000000
0.685150 0.258057 0.000000
0.727081 0.258057 0.000000
0.769073 0.258057 0.000000
0.811035 0.258057 0.000000
0.852966 0.258057 0.000000
0.894928 0.258057 0.000000
0.936890 0.258057 0.000000
0.978851 0.258057 0.000000
1.000000 0.258057 0.000000
1.000000 0.258057 0.000000
1.000000 0.258057 0.000000
1.000000 0.258057 0.000000
1.000000 0.258057 0.000000
0.000000 0.290314 0.000000
0.000000 0.290314 0.000000
0.000000 0.290314 0.000000
0.013763 0.290314 0.000000
0.055725 0.290314 0.000000
0.097687 0.290314 0.000000
0.139648 0.290314 0.000000
0.181610 0.290314 0.000000
0.223572 0.290314 0.000000
0.265503 0.290314 0.000000
0.307495 0.290314 0.000000
0.349426 0.290314 0.000000
0.391388 0.290314 0.000000
0.433350 0.290314 0.000000
0.475311 0.290314 0.000000
0.517273 0.290314 0.000000
0.559265 0.290314 0.000000
0.601227 0.290314 0.000000
0.643188 0.290314 0.000000
0.685150 0.290314 0.000000
0.727081 0.290314 0.000000
0.769073 0.290314 0.000000
0.811035 0.290314 0.000000
0.852966 0.290314 0.000000
0.894928 0.290314 0.000000
0.936890 0.290314 0.000000
0.978851 0.290314 0.000000
1.000000 0.290314 0.000000
1.000000 0.290314 0.000000
1.000000 0.290314 0.000000
1.000000 0.290314 0.000000
1.000000 0.290314 0.000000
0.000000 0.322571 0.000000
0.000000 0.322571 0.000000
0.000000 0.322571 0.000000
0.013763 0.322571 0.000000
0.055725 0.322571 0.000000
0.097687 0.322571 0.000000
0.139648 0.322571 0.000000
0.181610 0.322571 0.000000
0.223572 0.322571 0.000000
0.265503 0.322571 0.000000
0.307495 0.322571 0.000000
0.349426 0.322571 0.000000
0.391388 0.322571 0.000000
0.433350 0.322571 0.000000
0.475311 0.322571 0.000000
0.517273 0.322571 0.000000
0.559265 0.322571 0.000000
0.601227 0.322571 0.000000
0.643188 0.322571 0.000000
0.685150 0.322571 0.000000
0.727081 0.322571 0.000000
0.769073 0.322571 0.000000
0.811035 0.322571 0.000000
0.852966 0.322571 0.000000
0.894928 0.322571 0.000000
0.936890 0.322571 0.000000
0.978851 0.322571 0.000000
1.000000 0.322571 0.000000
1.000000 0.322571 0.000000
1.000000 0.322571 0.000000
1.000000 0.322571 0.000000
1.000000 0.322571 0.000000
0.000000 0.354828 0.000000
0.000000 0.354828 0.000000
0.000000 0.354828 0.000000
0.013763 0.354828 0.000000
0.055725 0.354828 0.000000
0.097687 0.354828 0.000000
0.139648 0.354828 0.000000
0.181610 0.354828 0.000000
0.223572 0.354828 0.000000
0.265503 0.354828 0.000000
0.307495 0.354828 0.000000
0.349426 0.354828 0.000000
0.391388 0.354828 0.000000
0.433350 0.354828 0.000000
0.475311 0.354828 0.000000
0.517273 0.354828 0.000000
0.559265 0.354828 0.000000
0.601227 0.354828 0.000000
0.643188 0.354828 0.000000
0.685150 0.354828 0.000000
0.727081 0.354828 0.000000
0.769073 0.354828 0.000000
0.811035 0.354828 0.000000
0.852966 0.354828 0.000000
0.894928 0.354828 0.000000
0.936890 0.354828 0.000000
0.978851 0.354828 0.000000
1.000000 0.354828 0.000000
1.000000 0.354828 0.000000
1.000000 0.354828 0.000000
1.000000 0.354828 0.000000
1.000000 0.354828 0.000000
0.000000 0.387085 0.000000
0.000000 0.387085 0.000000
0.000000 0.387085 0.000000
0.013763 0.387085 0.000000
0.055725 0.387085 0.000000
0.097687 0.387085 0.000000
0.139648 0.387085 0.000000
0.181610 0.387085 0.000000
0.223572 0.387085 0.000000
0.265503 0.387085 0.000000
0.307495 0.387085 0.000000
0.349426 0.387085 0.000000
0.391388 0.387085 0.000000
0.433350 0.387085 0.000000
0.475311 0.387085 0.000000
0.517273 0.387085 0.000000
0.559265 0.387085 0.000000
0.601227 0.387085 0.000000
0.643188 0.387085 0.000000
0.685150 0.387085 0.000000
0.727081 0.387085 0.000000
0.769073 0.387085 0.000000
0.811035 0.387085 0.000000
0.852966 0.387085 0.000000
0.894928 0.387085 0.000000
0.936890 0.387085 0.000000
0.978851 0.387085 0.000000
1.000000 0.387085 0.000000
1.000000 0.387085 0.000000
1.000000 0.387085 0.000000
1.000000 0.387085 0.000000
1.000000 0.387085 0.000000
0.000000 0.419342 0.000000
0.000000 0.419342 0.000000
0.000000 0.419342 0.000000
0.013763 0.419342 0.000000
0.055725 0.419342 0.000000
0.097687 0.419342 0.000000
0.139648 0.419342 0.000000
0.181610 0.419342 0.000000
0.223572 0.419342 0.000000
0.265503 0.419342 0.000000
0.307495 0.419342 0.000000
0.349426 0.419342 0.000000
0.391388 0.419342 0.000000
0.433350 0.419342 0.000000
0.475311 0.419342 0.000000
0.517273 0.419342 0.000000
0.559265 0.419342 0.000000
0.601227 0.419342 0.000000
0.643188 0.419342 0.000000
0.685150 0.419342 0.000000
0.727081 0.419342 0.000000
0.769073 0.419342 0.000000
0.811035 0.419342 0.000000
0.852966 0.419342 0.000000
0.894928 0.419342 0.000000
0.936890 0.419342 0.000000
0.978851 0.419342 0.000000
1.000000 0.419342 0.000000
1.000000 0.419342 0.000000
1.000000 0.419342 0.000000
1.000000 0.419342 0.000000
1.000000 0.419342 0.000000
0.000000 0.451599 0.000000
0.000000 0.451599 0.000000
0.000000 0.451599 0.000000
0.013763 0.451599 0.000000
0.055725 0.451599 0.000000
0.097687 0.451599 0.000000
0.139648 0.451599 0.000000
0.181610 0.451599 0.000000
0.223572 0.451599 0.000000
0.265503 0.451599 0.000000
0.307495 0.451599 0.000000
0.349426 0.451599 0.000000
0.391388 0.451599 0.000000
0.433350 0.451599 0.000000
0.475311 0.451599 0.000000
0.517273 0.451599 0.000000
0.559265 0.451599 0.000000
0.601227 0.451599 0.000000
0.643188 0.451599 0.000000
0.685150 0.451599 0.000000
0.727081 0.451599 0.000000
0.769073 0.451599 0.000000
0.811035 0.451599 0.000000
0.852966 0.451599 0.000000
0.894928 0.451599 0.000000
0.936890 0.451599 0.000000
0.978851 0.451599 0.000000
1.000000 0.451599 0.000000
1.000000 0.451599 0.000000
1.000000 0.451599 0.000000
1.000000 0.451599 0.000000
1.000000 0.451599 0.000000
0.000000 0.483856 0.000000
0.000000 0.483856 0.000000
0.000000 0.483856 0.000000
0.013763 0.483856 0.000000
0.055725 0.483856 0.000000
0.097687 0.483856 0.000000
0.139648 0.483856 0.000000
0.181610 0.483856 0.000000
0.223572 0.483856 0.000000
0.265503 0.483856 0.000000
0.307495 0.483856 0.000000
0.349426 0.483856 0.000000
0.391388 0.483856 0.000000
0.433350 0.483856 0.000000
0.475311 0.483856 0.000000
0.517273 0.483856 0.000000
0.559265 0.483856 0.000000
0.601227 0.483856 0.000000
0.643188 0.483856 0.000000
0.685150 0.483856 0.000000
0.727081 0.483856 0.000000
0.769073 0.483856 0.000000
0.811035 0.483856 0.000000
0.852966 0.483856 0.000000
0.894928 0.483856 0.000000
0.936890 0.483856 0.000000
0.978851 0.483856 0.000000
1.000000 0.483856 0.000000
1.000000 0.483856 0.000000
1.000000 0.483856 0.000000
1.000000 0.483856 0.000000
1.000000 0.483856 0.000000
0.000000 0.516144 0.000000
0.000000 0.516144 0.000000
0.000000 0.516144 0.000000
0.013763 0.516144 0.000000
0.055725 0.516144 0.000000
0.097687 0.516144 0.000000
0.139648 0.516144 0.000000
0.181610 0.516144 0.000000
0.223572 0.516144 0.000000
0.265503 0.516144 0.000000
0.307495 0.516144 0.000000
0.349426 0.516144 0.000000
0.391388 0.516144 0.000000
0.433350 0.516144 0.000000
0.475311 0.516144 0.000000
0.517273 0.516144 0.000000
0.559265 0.516144 0.000000
0.601227 0.516144 0.000000
0.643188 0.516144 0.000000
0.685150 0.516144 0.000000
0.727081 0.516144 0.000000
0.769073 0.516144 0.000000
0.811035 0.516144 0.000000
0.852966 0.516144 0.000000
0.894928 0.516144 0.000000
0.936890 0.516144 0.000000
0.978851 0.516144 0.000000
1.000000 0.516144 0.000000
1.000000 0.516144 0.000000
1.000000 0.516144 0.000000
1.000000 0.516144 0.000000
1.000000 0.516144 0.000000
0.000000 0.548401 0.000000
0.000000 0.548401 0.000000
0.000000 0.548401 0.000000
0.013763 0.548401 0.000000
0.055725 0.548401 0.000000
0.097687 0.548401 0.000000
0.139648 0.548401 0.000000
0.181610 0.548401 0.000000
0.223572 0.548401 0.000000
0.265503 0.548401 0.000000
0.307495 0.548401 0.000000
0.349426 0.548401 0.000000
0.391388 0.548401 0.000000
0.433350 0.548401 0.000000
0.475311 0.548401 0.000000
0.517273 0.548401 0.000000
0.559265 0.548401 0.000000
0.601227 0.548401 0.000000
0.643188 0.548401 0.000000
0.685150 0.548401 0.000000
0.727081 0.548401 0.000000
0.769073 0.548401 0.000000
0.811035 0.548401 0.000000
0.852966 0.548401 0.000000
0.894928 0.548401 0.000000
0.936890 0.548401 0.000000
0.978851 0.548401 0.000000
1.000000 0.548401 0.000000
1.000000 0.548401 0.000000
1.000000 0.548401 0.000000
1.000000 0.548401 0.000000
1.000000 0.548401 0.000000
0.000000 0.580658 0.000000
0.000000 0.580658 0.000000
0.000000 0.580658 0.000000
0.013763 0.580658 0.000000
0.055725 0.580658 0.000000
0.097687 0.580658 0.000000
0.139648 0.580658 0.000000
0.181610 0.580658 0.000000
0.223572 0.580658 0.000000
0.265503 0.580658 0.000000
0.307495 0.580658 0.000000
0.349426 0.580658 0.000000
0.391388 0.580658 0.000000
0.433350 0.580658 0.000000
0.475311 0.580658 0.000000
0.517273 0.580658 0.000000
0.559265 0.580658 0.000000
0.601227 0.580658 0.000000
0.643188 0.580658 0.000000
0.685150 0.580658 0.000000
0.727081 0.580658 0.000000
0.769073 0.580658 0.000000
0.811035 0.580658 0.000000
0.852966 0.580658 0.000000
0.894928 0.580658 0.000000
0.936890 0.580658 0.000000
0.978851 0.580658 0.000000
1.000000 0.580658 0.000000
1.000000 0.580658 0.000000
1.000000 0.580658 0.000000
1.000000 0.580658 0.000000
1.000000 0.580658 0.000000
0.000000 0.612915 0.000000
0.000000 0.612915 0.000000
0.000000 0.612915 0.000000
0.013763 0.612915 0.000000
0.055725 0.612915 0.000000
0.097687 0.612915 0.000000
0.139648 0.612915 0.000000
0.181610 0.612915 0.000000
0.223572 0.612915 0.000000
0.265503 0.612915 0.000000
0.307495 0.612915 0.000000
0.349426 0.612915 0.000000
0.391388 0.612915 0.000000
0.433350 0.612915 0.000000
0.475311 0.612915 0.000000
0.517273 0.612915 0.000000
0.559265 0.612915 0.000000
0.601227 0.612915 0.000000
0.643188 0.612915 0.000000
0.685150 0.612915 0.000000
0.727081 0.612915 0.000000
0.769073 0.612915 0.000000
0.811035 0.612915 0.000000
0.852966 0.612915 0.000000
0.894928 0.612915 0.000000
0.936890 0.612915 0.000000
0.978851 0.612915 0.000000
1.000000 0.612915 0.000000
1.000000 0.612915 0.000000
1.000000 0.612915 0.000000
1.000000 0.612915 0.000000
1.000000 0.612915 0.000000
0.000000 0.645172 0.000000
0.000000 0.645172 0.000000
0.000000 0.645172 0.000000
0.013763 0.645172 0.000000
0.055725 0.645172 0.000000
0.097687 0.645172 0.000000
0.139648 0.645172 0.000000
0.181610 0.645172 0.000000
0.223572 0.645172 0.000000
0.265503 0.645172 0.000000
0.307495 0.645172 0.000000
0.349426 0.645172 0.000000
0.391388 0.645172 0.000000
0.433350 0.645172 0.000000
0.475311 0.645172 0.000000
0.517273 0.645172 0.000000
0.559265 0.645172 0.000000
0.601227 0.645172 0.000000
0.643188 0.645172 0.000000
0.685150 0.645172 0.000000
0.727081 0.645172 0.000000
0.769073 0.645172 0.000000
0.811035 0.645172 0.000000
0.852966 0.645172 0.000000
0.894928 0.645172 0.000000
0.936890 0.645172 0.000000
0.978851 0.645172 0.000000
1.000000 0.645172 0.000000
1.000000 0.645172 0.000000
1.000000 0.645172 0.000000
1.000000 0.645172 0.000000
1.000000 0.645172 0.000000
0.000000 0.677429 0.000000
0.000000 0.677429 0.000000
0.000000 0.677429 0.000000
0.013763 0.677429 0.000000
0.055725 0.677429 0.000000
0.097687 0.677429 0.000000
0.139648 0.677429 0.000000
0.181610 0.677429 0.000000
0.223572 0.677429 0.000000
0.265503 0.677429 0.000000
0.307495 0.677429 0.000000
0.349426 0.677429 0.000000
0.391388 0.677429 0.000000
0.433350 0.677429 0.000000
0.475311 0.677429 0.000000
0.517273 0.677429 0.000000
0.559265 0.677429 0.000000
0.601227 0.677429 0.000000
0.643188 0.677429 0.000000
0.685150 0.677429 0.000000
0.727081 0.677429 0.000000
0.769073 0.677429 0.000000
0.811035 0.677429 0.000000
0.852966 0.677429 0.000000
0.894928 0.677429 0.000000
0.936890 0.677429 0.000000
0.978851 0.677429 0.000000
1.000000 0.677429 0.000000
1.000000 0.677429 0.000000
1.000000 0.677429 0.000000
1.000000 0.677429 0.000000
1.000000 0.677429 0.000000
0.000000 0.709686 0.000000
0.000000 0.709686 0.000000
0.000000 0.709686 0.000000
0.013763 0.709686 0.000000
0.055725 0.709686 0.000000
0.097687 0.709686 0.000000
0.139648 0.709686 0.000000
0.181610 0.709686 0.000000
0.223572 0.709686 0.000000
0.265503 0.709686 0.000000
0.307495 0.709686 0.000000
0.349426 0.709686 0.000000
0.391388 0.709686 0.000000
0.433350 0.709686 0.000000
0.475311 0.709686 0.000000
0.517273 0.709686 0.000000
0.559265 0.709686 0.000000
0.601227 0.709686 0.000000
0.643188 0.709686 0.000000
0.685150 0.709686 0.000000
0.727081 0.709686 0.000000
0.769073 0.709686 0.000000
0.811035 0.709686 0.000000
0.852966 0.709686 0.000000
0.894928 0.709686 0.000000
0.936890 0.709686 0.000000
0.978851 0.709686 0.000000
1.000000 0.709686 0.000000
1.000000 0.709686 0.000000
1.000000 0.709686 0.000000
1.000000 0.709686 0.000000
1.000000 0.709686 0.000000
0.000000 0.741943 0.000000
0.000000 0.741943 0.000000
0.000000 0.741943 0.000000
0.013763 0.741943 0.000000
0.055725 0.741943 0.000000
0.097687 0.741943 0.000000
0.139648 0.741943 0.000000
0.181610 0.741943 0.000000
0.223572 0.741943 0.000000
0.265503 0.741943 0.000000
0.307495 0.741943 0.000000
0.349426 0.741943 0.000000
0.391388 0.741943 0.000000
0.433350 0.741943 0.000000
0.475311 0.741943 0.000000
0.517273 0.741943 0.000000
0.559265 0.741943 0.000000
0.601227 0.741943 0.000000
0.643188 0.741943 0.000000
0.685150 0.741943 0.000000
0.727081 0.741943 0.000000
0.769073 0.741943 0.000000
0.811035 0.741943 0.000000
0.852966 0.741943 0.000000
0.894928 0.741943 0.000000
0.936890 0.741943 0.000000
0.978851 0.741943 0.000000
1.000000 0.741943 0.000000
1.000000 0.741943 0.000000
1.000000 0.741943 0.000000
1.000000 0.741943 0.000000
1.000000 0.741943 0.000000
0.000000 0.774200 0.000000
0.000000 0.774200 0.000000
0.000000 0.774200 0.000000
0.013763 0.774200 0.000000
0.055725 0.774200 0.000000
0.097687 0.774200 0.000000
0.139648 0.774200 0.000000
0.181610 0.774200 0.000000
0.223572 0.774200 0.000000
0.265503 0.774200 0.000000
0.307495 0.774200 0.000000
0.349426 0.774200 0.000000
0.391388 0.774200 0.000000
0.433350 0.774200 0.000000
0.475311 0.774200 0.000000
0.517273 0.774200 0.000000
0.559265 0.774200 0.000000
0.601227 0.774200 0.000000
0.643188 0.774200 0.000000
0.685150 0.774200 0.000000
0.727081 0.774200 0.000000
0.769073 0.774200 0.000000
0.811035 0.774200 0.000000
0.852966 0.774200 0.000000
0.894928 0.774200 0.000000
0.936890 0.774200 0.000000
0.978851 0.774200 0.000000
1.000000 0.774200 0.000000
1.000000 0.774200 0.000000
1.000000 0.774200 0.000000
1.000000 0.774200 0.000000
1.000000 0.774200 0.000000
0.000000 0.806458 0.000000
0.000000 0.806458 0.000000
0.000000 0.806458 0.000000
0.013763 0.806458 0.000000
0.055725 0.806458 0.000000
0.097687 0.806458 0.000000
0.139648 0.806458 0.000000
0.181610 0.806458 0.000000
0.223572 0.806458 0.000000
0.265503 0.806458 0.000000
0.307495 0.806458 0.000000
0.349426 0.806458 0.000000
0.391388 0.806458 0.000000
0.433350 0.806458 0.000000
0.475311 0.806458 0.000000
0.517273 0.806458 0.000000
0.559265 0.806458 0.000000
0.601227 0.806458 0.000000
0.643188 0.806458 0.000000
0.685150 0.806458 0.000000
0.727081 0.806458 0.000000
0.769073 0.806458 0.000000
0.811035 0.806458 0.000000
0.852966 0.806458 0.000000
0.894928 0.806458 0.000000
0.936890 0.806458 0.000000
0.978851 0.806458 0.000000
1.000000 0.806458 0.000000
1.000000 0.806458 0.000000
1.000000 0.806458 0.000000
1.000000 0.806458 0.000000
1.000000 0.806458 0.000000
0.000000 0.838715 0.000000
0.000000 0.838715 0.000000
0.000000 0.838715 0.000000
0.013763 0.838715 0.000000
0.055725 0.838715 0.000000
0.097687 0.838715 0.000000
0.139648 0.838715 0.000000
0.181610 0.838715 0.000000
0.223572 0.838715 0.000000
0.265503 0.838715 0.000000
0.307495 0.838715 0.000000
0.349426 0.838715 0.000000
0.391388 0.838715 0.000000
0.433350 0.838715 0.000000
0.475311 0.838715 0.000000
0.517273 0.838715 0.000000
0.559265 0.838715 0.000000
0.601227 0.838715 0.000000
0.643188 0.838715 0.000000
0.685150 0.838715 0.000000
0.727081 0.838715 0.000000
0.769073 0.838715 0.000000
0.811035 0.838715 0.000000
0.852966 0.838715 0.000000
0.894928 0.838715 0.000000
0.936890 0.838715 0.000000
0.978851 0.838715 0.000000
1.000000 0.838715 0.000000
1.000000 0.838715 0.000000
1.000000 0.838715 0.000000
1.000000 0.838715 0.000000
1.000000 0.838715 0.000000
0.000000 0.870972 0.000000
0.000000 0.870972 0.000000
0.000000 0.870972 0.000000
0.013763 0.870972 0.000000
0.055725 0.870972 0.000000
0.097687 0.870972 0.000000
0.139648 0.870972 0.000000
0.181610 0.870972 0.000000
0.223572 0.870972 0.000000
0.265503 0.870972 0.000000
0.307495 0.870972 0.000000
0.349426 0.870972 0.000000
0.391388 0.870972 0.000000
0.433350 0.870972 0.000000
0.475311 0.870972 0.000000
0.517273 0.870972 0.000000
0.559265 0.870972 0.000000
0.601227 0.870972 0.000000
