shaders/textures/colorFilm.CUBE
#Created by: Adobe Photoshop Export Color Lookup Plugin
TITLE "_MG_0096.tif"
#LUT size
LUT_3D_SIZE 5
#data domain
#LUT data points
DOMAIN_MIN 0.000000 0.000000 0.000000
DOMAIN_MAX 0.903226 0.903226 0.903226
0.000000 0.000000 0.000000
0.181610 0.000000 0.000000
0.475311 0.000000 0.000000
0.769073 0.000000 0.000000
1.000000 0.000000 0.000000
0.000000 0.225800 0.000000
0.181610 0.225800 0.000000
0.475311 0.225800 0.000000
0.769073 0.225800 0.000000
1.000000 0.225800 0.000000
0.000000 0.451599 0.000000
0.181610 0.451599 0.000000
0.475311 0.451599 0.000000
0.769073 0.451599 0.000000
1.000000 0.451599 0.000000
0.000000 0.677429 0.000000
0.181610 0.677429 0.000000
0.475311 0.677429 0.000000
0.769073 0.677429 0.000000
1.000000 0.677429 0.000000
0.000000 0.903229 0.000000
0.181610 0.903229 0.000000
0.475311 0.903229 0.000000
0.769073 0.903229 0.000000
1.000000 0.903229 0.000000
0.000000 0.000000 0.187531
0.181610 0.000000 0.187531
0.475311 0.000000 0.187531
0.769073 0.000000 0.187531
1.000000 0.000000 0.187531
0.000000 0.225800 0.187531
0.181610 0.225800 0.187531
0.475311 0.225800 0.187531
0.769073 0.225800 0.187531
1.000000 0.225800 0.187531
0.000000 0.451599 0.187531
0.181610 0.451599 0.187531
0.475311 0.451599 0.187531
0.769073 0.451599 0.187531
1.000000 0.451599 0.187531
0.000000 0.677429 0.187531
0.181610 0.677429 0.187531
0.475311 0.677429 0.187531
0.769073 0.677429 0.187531
1.000000 0.677429 0.187531
0.000000 0.903229 0.187531
0.181610 0.903229 0.187531
0.475311 0.903229 0.187531
0.769073 0.903229 0.187531
1.000000 0.903229 0.187531
0.000000 0.000000 0.424469
0.181610 0.000000 0.424469
0.475311 0.000000 0.424469
0.769073 0.000000 0.424469
1.000000 0.000000 0.424469
0.000000 0.225800 0.424469
0.181610 0.225800 0.424469
0.475311 0.225800 0.424469
0.769073 0.225800 0.424469
1.000000 0.225800 0.424469
0.000000 0.451599 0.424469
0.181610 0.451599 0.424469
0.475311 0.451599 0.424469
0.769073 0.451599 0.424469
1.000000 0.451599 0.424469
0.000000 0.677429 0.424469
0.181610 0.677429 0.424469
0.475311 0.677429 0.424469
0.769073 0.677429 0.424469
1.000000 0.677429 0.424469
0.000000 0.903229 0.424469
0.181610 0.903229 0.424469
0.475311 0.903229 0.424469
0.769073 0.903229 0.424469
1.000000 0.903229 0.424469
0.000000 0.000000 0.661469
0.181610 0.000000 0.661469
0.475311 0.000000 0.661469
0.769073 0.000000 0.661469
1.000000 0.000000 0.661469
0.000000 0.225800 0.661469
0.181610 0.225800 0.661469
0.475311 0.225800 0.661469
0.769073 0.225800 0.661469
1.000000 0.225800 0.661469
0.000000 0.451599 0.661469
0.181610 0.451599 0.661469
0.475311 0.451599 0.661469
0.769073 0.451599 0.661469
1.000000 0.451599 0.661469
0.000000 0.677429 0.661469
0.181610 0.677429 0.661469
0.475311 0.677429 0.661469
0.769073 0.677429 0.661469
1.000000 0.677429 0.661469
0.000000 0.903229 0.661469
0.181610 0.903229 0.661469
0.475311 0.903229 0.661469
0.769073 0.903229 0.661469
1.000000 0.903229 0.661469
0.000000 0.000000 0.898438
0.181610 0.000000 0.898438
0.475311 0.000000 0.898438
0.769073 0.000000 0.898438
1.000000 0.000000 0.898438
0.000000 0.225800 0.898438
0.181610 0.225800 0.898438
0.475311 0.225800 0.898438
0.769073 0.225800 0.898438
1.000000 0.225800 0.898438
0.000000 0.451599 0.898438
0.181610 0.451599 0.898438
0.475311 0.451599 0.898438
0.769073 0.451599 0.898438
1.000000 0.451599 0.898438
0.000000 0.677429 0.898438
0.181610 0.677429 0.898438
0.475311 0.677429 0.898438
0.769073 0.677429 0.898438
1.000000 0.677429 0.898438
0.000000 0.903229 0.898438
0.181610 0.903229 0.898438
0.475311 0.903229 0.898438
0.769073 0.903229 0.898438
1.000000 0.903229 0.898438
